svg/UnitedNations-Flags/flag-ma.svg

<?xml version="1.0" encoding="UTF-8" standalone="no"?>
<svg height="256" id="svg4002" inkscape:output_extension="org.inkscape.output.svg.inkscape" inkscape:version="0.46" sodipodi:docname="Flag_of_Morocco.svg" sodipodi:version="0.32" version="1.0" viewBox="-60 -40 120 80" width="256" xmlns="http://www.w3.org/2000/svg" xmlns:cc="http://creativecommons.org/ns#" xmlns:dc="http://purl.org/dc/elements/1.1/" xmlns:inkscape="http://www.inkscape.org/namespaces/inkscape" xmlns:rdf="http://www.w3.org/1999/02/22-rdf-syntax-ns#" xmlns:sodipodi="http://sodipodi.sourceforge.net/DTD/sodipodi-0.dtd" xmlns:svg="http://www.w3.org/2000/svg">
  <metadata>
    <rdf:RDF xmlns:cc="http://web.resource.org/cc/" xmlns:dc="http://purl.org/dc/elements/1.1/" xmlns:rdf="http://www.w3.org/1999/02/22-rdf-syntax-ns#">
      <cc:Work rdf:about="">
        <dc:title></dc:title>
        <dc:description></dc:description>
        <dc:subject>
          <rdf:Bag>
            <rdf:li>unsorted</rdf:li>
          </rdf:Bag>
        </dc:subject>
        <dc:publisher>
          <cc:Agent rdf:about="http://www.openclipart.org/">
            <dc:title>Open Clip Art Library, Source: Wikimedia Commons, Source: Wikimedia Commons, Source: Wikimedia Commons, Source: Wikimedia Commons</dc:title>
          </cc:Agent>
        </dc:publisher>
        <dc:creator>
          <cc:Agent>
            <dc:title></dc:title>
          </cc:Agent>
        </dc:creator>
        <dc:rights>
          <cc:Agent>
            <dc:title></dc:title>
          </cc:Agent>
        </dc:rights>
        <dc:date></dc:date>
        <dc:format>image/svg+xml</dc:format>
        <dc:type rdf:resource="http://purl.org/dc/dcmitype/StillImage"/>
        <cc:license rdf:resource="http://en.wikipedia.org/wiki/Public_domain"/>
        <dc:language>en</dc:language>
      </cc:Work>
    </rdf:RDF>
  </metadata>
  <defs id="defs4021">
    <inkscape:perspective id="perspective4025" inkscape:persp3d-origin="450 : 200 : 1" inkscape:vp_x="0 : 300 : 1" inkscape:vp_y="0 : 1000 : 0" inkscape:vp_z="900 : 300 : 1" sodipodi:type="inkscape:persp3d"/>
  </defs>
  <sodipodi:namedview bordercolor="#666666" borderopacity="1.0" gridtolerance="10.0" guidetolerance="10.0" id="base" inkscape:current-layer="svg4002" inkscape:cx="450" inkscape:cy="300" inkscape:pageopacity="0.0" inkscape:pageshadow="2" inkscape:window-height="752" inkscape:window-width="811" inkscape:window-x="33" inkscape:window-y="156" inkscape:zoom="0.62111111" objecttolerance="10.0" pagecolor="#ffffff" showgrid="false"/>
  <desc id="desc4004">Flag of Morocco</desc>
  <rect height="80" id="rect4006" style="fill:#c1272d" width="120" x="-60" y="-40"/>
  <g id="g4008" style="fill:#006233;stroke:#000000;stroke-width:0.88999999" transform="matrix(0.4392946,0,0,0.4618638,-84.342931,-57.008939)">
    <path d="M 181.25,113.1875 L 146.46875,113.21875 L 186.0625,141.96875 L 192,137.65625 L 168,120.21875 L 178.96875,120.1875 L 181.25,113.1875 z" id="path4010"/>
    <path d="M 202.76559,113.19883 L 191.98787,80.129551 L 176.88014,126.66968 L 182.81636,130.98395 L 191.984,102.77011 L 195.40325,113.19235 L 202.76559,113.19883 z" id="path4012"/>
    <path d="M 209.40356,133.66496 L 237.52382,113.19577 L 188.59298,113.20916 L 186.32426,120.18802 L 215.99017,120.18841 L 207.13464,126.66096 L 209.40356,133.66496 z" id="path4014"/>
    <path d="M 191.99045,146.30222 L 220.14744,166.72085 L 205.01425,120.18899 L 197.67588,120.1879 L 206.84278,148.40198 L 197.95051,141.97999 L 191.99045,146.30222 z" id="path4016"/>
    <path d="M 174.59078,133.64658 L 163.8725,166.73517 L 203.45052,137.96351 L 201.18387,130.98397 L 177.18341,148.42084 L 180.54323,137.97929 L 174.59078,133.64658 z" id="path4018"/>
  </g>
</svg>

<svg height="256" viewBox="-60 -40 120 80" width="256" xmlns="http://www.w3.org/2000/svg"><path fill="#c1272d" d="m-60-40h120v80h-120z"/><g transform="matrix(.43929 0 0 .46186-84.34-57.01)" fill="#006233" stroke="#000" stroke-width=".89"><path d="m181.25 113.19l-34.781.031 39.594 28.75 5.938-4.313-24-17.438 10.969-.031 2.281-7z"/><path d="m202.77 113.2l-10.778-33.07-15.11 46.54 5.936 4.314 9.168-28.21 3.419 10.422 7.362.006z"/><path d="m209.4 133.66l28.12-20.469-48.931.013-2.269 6.979h29.666l-8.856 6.473 2.269 7z"/><path d="m191.99 146.3l28.16 20.419-15.13-46.532-7.338-.0001 9.167 28.21-8.892-6.422-5.96 4.322z"/><path d="m174.59 133.65l-10.718 33.09 39.578-28.772-2.267-6.98-24 17.437 3.36-10.442-5.952-4.333z"/></g></svg>
